Numix/48x48/categories/gnome-applications.svg

<?xml version="1.0" encoding="UTF-8" standalone="no"?>
<svg
   xmlns:dc="http://purl.org/dc/elements/1.1/"
   xmlns:cc="http://creativecommons.org/ns#"
   xmlns:rdf="http://www.w3.org/1999/02/22-rdf-syntax-ns#"
   xmlns:svg="http://www.w3.org/2000/svg"
   xmlns="http://www.w3.org/2000/svg"
   xmlns:sodipodi="http://sodipodi.sourceforge.net/DTD/sodipodi-0.dtd"
   xmlns:inkscape="http://www.inkscape.org/namespaces/inkscape"
   width="48"
   height="48"
   viewBox="0 0 38.4 38.4"
   id="svg2"
   version="1.1"
   inkscape:version="0.91 r"
   sodipodi:docname="gnome-applications.svg">
  <metadata
     id="metadata20">
    <rdf:RDF>
      <cc:Work
         rdf:about="">
        <dc:format>image/svg+xml</dc:format>
        <dc:type
           rdf:resource="http://purl.org/dc/dcmitype/StillImage" />
        <dc:title />
      </cc:Work>
    </rdf:RDF>
  </metadata>
  <defs
     id="defs18" />
  <sodipodi:namedview
     pagecolor="#ffffff"
     bordercolor="#666666"
     borderopacity="1"
     objecttolerance="10"
     gridtolerance="10"
     guidetolerance="10"
     inkscape:pageopacity="0"
     inkscape:pageshadow="2"
     inkscape:window-width="961"
     inkscape:window-height="480"
     id="namedview16"
     showgrid="false"
     inkscape:zoom="4.9684211"
     inkscape:cx="23.75"
     inkscape:cy="23.75"
     inkscape:window-x="10"
     inkscape:window-y="34"
     inkscape:window-maximized="0"
     inkscape:current-layer="svg2" />
  <g
     style="fill:#6f8bc0"
     id="g4"
     transform="translate(0.2004218,0.2)">
    <path
       d="m 28.605469,4.15625 c -6.226563,0 -7.394531,8.796875 -3.890625,8.796875 3.5,0 10.113281,-8.796875 3.890625,-8.796875 z"
       id="path6"
       inkscape:connector-curvature="0" />
    <path
       d="m 18.269531,11.863281 c 1.863281,0.113281 3.910157,-7.058593 0.40625,-6.609375 -3.503906,0.453125 -2.273437,6.496094 -0.40625,6.609375 z"
       id="path8"
       inkscape:connector-curvature="0" />
    <path
       d="m 9.722656,16.320312 c 1.328125,-0.578124 0.171875,-6.246093 -2.082031,-4.699218 -2.253906,1.542968 0.757813,5.277344 2.082031,4.699218 z"
       id="path10"
       inkscape:connector-curvature="0" />
    <path
       d="M 13.460938,13.355469 C 15.039062,13.035156 15.125,6.609375 12.3125,7.761719 c -2.816406,1.15625 -0.429688,5.914062 1.148438,5.59375 z"
       id="path12"
       inkscape:connector-curvature="0" />
    <path
       d="m 21.703125,27.730469 c 0.28125,2.125 -1.570313,3.171875 -3.378906,1.804687 -5.765625,-4.355468 9.546875,-6.527344 8.535156,-12.480468 -0.835937,-4.9375 -16.109375,-3.417969 -17.847656,4.3125 -1.179688,5.226562 4.84375,12.476562 11.128906,12.476562 3.09375,0 6.660156,-2.769531 7.324219,-6.277344 0.511718,-2.675781 -5.996094,-1.605468 -5.761719,0.164063 z"
       id="path14"
       inkscape:connector-curvature="0" />
  </g>
</svg>

<svg width="47.5" xmlns="http://www.w3.org/2000/svg" height="47.5" viewBox="0 0 38 38" xmlns:xlink="http://www.w3.org/1999/xlink">
<g style="fill:#6f8bc0">
<path d="M 28.605469 4.15625 C 22.378906 4.15625 21.210938 12.953125 24.714844 12.953125 C 28.214844 12.953125 34.828125 4.15625 28.605469 4.15625 Z "/>
<path d="M 18.269531 11.863281 C 20.132812 11.976562 22.179688 4.804688 18.675781 5.253906 C 15.171875 5.707031 16.402344 11.75 18.269531 11.863281 Z "/>
<path d="M 9.722656 16.320312 C 11.050781 15.742188 9.894531 10.074219 7.640625 11.621094 C 5.386719 13.164062 8.398438 16.898438 9.722656 16.320312 Z "/>
<path d="M 13.460938 13.355469 C 15.039062 13.035156 15.125 6.609375 12.3125 7.761719 C 9.496094 8.917969 11.882812 13.675781 13.460938 13.355469 Z "/>
<path d="M 21.703125 27.730469 C 21.984375 29.855469 20.132812 30.902344 18.324219 29.535156 C 12.558594 25.179688 27.871094 23.007812 26.859375 17.054688 C 26.023438 12.117188 10.75 13.636719 9.011719 21.367188 C 7.832031 26.59375 13.855469 33.84375 20.140625 33.84375 C 23.234375 33.84375 26.800781 31.074219 27.464844 27.566406 C 27.976562 24.890625 21.46875 25.960938 21.703125 27.730469 Z "/>
</g>
</svg>
